icons/op-star-filled-24.svg

<svg width="24" height="24" viewBox="0 0 24 24" fill="none" xmlns="http://www.w3.org/2000/svg">
<path d="M6.42084 19.0213L7.61284 13.8596L4.24162 10.574C4.13154 10.4667 4.0547 10.33 4.0203 10.1802C3.98589 10.0304 3.99538 9.8738 4.04762 9.72923C4.09986 9.58466 4.19264 9.45821 4.31487 9.36499C4.43709 9.27177 4.58359 9.21574 4.73683 9.2036L9.29765 8.8412L11.2713 4.47238C11.3342 4.3317 11.4365 4.21224 11.5658 4.12842C11.6951 4.0446 11.846 4 12.0001 4C12.1542 4 12.305 4.0446 12.4343 4.12842C12.5636 4.21224 12.6659 4.3317 12.7289 4.47238L14.7025 8.8412L19.2633 9.2044C19.4192 9.21678 19.5681 9.27458 19.6915 9.37066C19.8149 9.46674 19.9074 9.59689 19.9576 9.745C20.0079 9.89311 20.0136 10.0527 19.974 10.204C19.9345 10.3553 19.8515 10.4918 19.7353 10.5964L16.1065 13.862L17.5697 18.9821C17.6142 19.1395 17.6093 19.3067 17.5559 19.4613C17.5025 19.6159 17.403 19.7504 17.2708 19.8468C17.1386 19.9432 16.9801 19.9967 16.8166 20.0003C16.6531 20.0039 16.4924 19.9573 16.3561 19.8669L12.0001 16.9628L7.64404 19.8669C7.51086 19.9566 7.35371 20.0041 7.19312 20.0032C7.03253 20.0022 6.87596 19.9528 6.74385 19.8615C6.61175 19.7702 6.51026 19.6412 6.45263 19.4913C6.395 19.3414 6.38392 19.1776 6.42084 19.0213Z" fill="black"/>
</svg>

<svg xmlns="http://www.w3.org/2000/svg" width="24" height="24" viewBox="0 0 24 24"><path d="m6.421 19.021 1.192-5.161-3.371-3.286a.805.805 0 0 1-.194-.845.8.8 0 0 1 .689-.525l4.561-.363 1.973-4.369a.804.804 0 0 1 1.163-.344.8.8 0 0 1 .295.344l1.974 4.369 4.56.363a.807.807 0 0 1 .695.541.798.798 0 0 1-.223.851l-3.628 3.266 1.463 5.12a.807.807 0 0 1-.299.865.799.799 0 0 1-.915.02L12 16.963l-4.356 2.904a.795.795 0 0 1-.9-.006.792.792 0 0 1-.323-.84Z"/></svg>
